X:204
T:PLINN 1
Z: Yves BELOTTEAU
M:4/4
L:1/8
Q:1/4=120
K:C 
|A,E/2E/2EF DFEC|A,E/2E/2EF DFE3/2 z/2 |A,E/2E/2EF DFEC|A,D/2D/2DE C3/2 
z/2 A,3/2 z/2 |
C/2B,/2CA,A, CA,B,3/2 z/2 |EA,B,C DCB,C/2B,/2|CA,A,C A,B,3/2 z/2 E|Ac/2B
/2AB GA3/2 z/2 A|
e/2e/2eef de3/2 z/2 d3/2|c/2Bcdfe3/2 z/2 Ae/2|e/2eefde3/2 z/2 d3/2|c/2Bc
dfe3/2 z/2 A/2c/2|
ABdc/2c/2 cBAG|c/2c/2cAB cA/2A/2AB|dc/2c/2cB AGc/2c/2c|ABcA3/2 z/2 A3/2|
